X:341
T: Ding ding dang
N: C1226
O: China, Zhejiang, Wenzhou
S: MM,]
N: Noten kopiert.
N: Grundtonangabe: 6=B. T.9,2/10,1 ist 6_6_  jeweils eingeklammert in der
N: Art der Vor- bzw. Zwischenspiele, aber trotzdem textunterlegt.
N: Variante zu C1225!!!
R: Xiaodiao, Erge]
M: 2/4
L: 1/16
K: D
B2e2e4 | d2B2B4
B2e2e4 | d2B2B4
B2e2d2e2 | d2B2B2A2 | A2AAB4
d2BdB4 | B2B2B2B2 | B2B2e4 | d2B2B4
B2e2d2e2 | d2B2A2A2 | B4A2F2

